DVA
CUT[Muede kehrt ein Wanderer zurueck
    nach der Heimat seiner Liebe Glueck]
REG[Europa, Mitteleuropa, Deutschland, ???, Bielitz]
KEY[D1019  16  G 4/4]
MEL[-5_.-5  3__.2_1_.-71_.2  -5__0___
    -7_.1  2__.1_-7_2_6_5_  3__0___
    -5_.-5  3__.3_5_.54_.3  2__0___
    3_.2  1__.-5_-5_4_3_2_  1__0___ //] >>
FCT[Liebes - Lied]
CMT[DVA-Signatur A 193 113]
